images/bluehost.svg

<svg width="136" height="24" viewBox="0 0 136 24" fill="none" xmlns="http://www.w3.org/2000/svg">
<path fill-rule="evenodd" clip-rule="evenodd" d="M49.7 1V23.29H48.19V1H49.7ZM34.573 1.016V10.592C35.8624 9.43714 37.53 8.79435 39.261 8.785C42.407 8.785 45.443 10.941 45.443 16.141C45.443 21.515 42.03 23.541 38.38 23.541C36.4893 23.5257 34.6351 23.0184 33 22.069V1.016H34.573ZM74.391 8.827H74.652C78.382 8.92 80.952 11.876 80.577 16.227L80.551 16.495H69.194C69.1668 17.9828 69.7437 19.4181 70.7929 20.4734C71.8421 21.5286 73.2741 22.1136 74.762 22.095C74.858 22.099 74.9537 22.101 75.049 22.101C76.3917 22.0837 77.7122 21.7558 78.907 21.143L79.182 21.001L79.732 22.333C78.2911 23.125 76.6762 23.547 75.032 23.561C74.9167 23.561 74.8003 23.5587 74.683 23.554C69.933 23.4 67.5 19.644 67.653 15.633C67.615 13.8284 68.3104 12.0855 69.5803 10.8027C70.8503 9.52001 72.5861 8.8071 74.391 8.827ZM129.424 9.022V4.234L127.851 4.238V9.026H125.319V10.374H127.851V18.285C127.851 21.948 129.881 23.517 132.429 23.517C133.508 23.5072 134.576 23.2921 135.575 22.883L135.119 21.483C134.289 21.8752 133.378 22.0654 132.46 22.038C130.399 21.959 129.424 20.47 129.424 18.17V10.37H134.112V9.022H129.424ZM104.744 8.8C108.393 8.8 111.555 11.527 111.555 16.14C111.555 20.864 108.377 23.512 104.744 23.512C100.67 23.512 97.933 20.212 97.933 16.14C97.933 11.812 100.953 8.8 104.744 8.8ZM54.944 17.722V9.022L53.37 9.021V17.883C53.37 22.227 55.509 23.511 57.743 23.511C59.9136 23.4494 61.9194 22.3384 63.123 20.531V23.29H64.7V9.018H63.12V18.911C61.799 20.861 60.1 22.034 58.244 22.034C56.596 22.034 54.944 21.115 54.944 17.722ZM119.09 8.832C120.465 8.84788 121.816 9.20195 123.022 9.863L122.422 11.115C121.411 10.5698 120.282 10.2814 119.134 10.275C116.79 10.275 115.734 11.432 115.734 12.637C115.734 14.0504 117.195 14.6463 119.129 15.4351C119.3 15.5047 119.474 15.5757 119.651 15.649C123.064 16.997 123.788 18.535 123.788 19.849C123.788 22.084 121.712 23.495 118.959 23.495C117.369 23.4766 115.814 23.0273 114.459 22.195L115.135 20.832C116.247 21.5967 117.561 22.0143 118.91 22.032C120.389 22.032 122.229 21.414 122.21 19.908C122.21 18.624 120.857 17.625 118.687 16.769C116.28 15.802 114.173 14.914 114.173 12.631C114.173 10.348 116.305 8.831 119.089 8.831L119.09 8.832ZM85.68 11.816V1.016H84.106V23.293H85.679V13.493C86.64 11.875 88.479 10.259 90.54 10.275C92.239 10.29 93.812 11.384 93.812 14.475V23.29H95.37V14.143C95.37 10.956 93.701 8.8 90.87 8.8C88.7407 8.86102 86.7872 9.99623 85.68 11.816ZM34.573 12.461C35.7136 11.1211 37.3609 10.317 39.119 10.242C41.777 10.242 43.854 12.4 43.869 16.158C43.869 20.423 41.179 22.135 38.285 22.135C36.9911 22.1215 35.7189 21.801 34.573 21.2V12.461ZM104.744 10.274C101.362 10.274 99.522 12.974 99.522 16.14C99.522 19.295 101.347 22.04 104.744 22.04C108.032 22.04 109.982 19.281 109.982 16.14C109.982 12.969 108.047 10.274 104.744 10.274ZM69.278 14.968C69.4648 12.3153 71.6697 10.2579 74.3289 10.255C74.3893 10.255 74.4503 10.256 74.512 10.258C75.783 10.2831 76.9891 10.8244 77.8525 11.7575C78.7159 12.6905 79.1624 13.9349 79.089 15.204H69.258L69.278 14.968ZM74.3289 10.255C74.3289 10.255 74.329 10.255 74.329 10.255H74.328C74.3283 10.255 74.3286 10.255 74.3289 10.255Z" fill="#196BDE"/>
<path fill-rule="evenodd" clip-rule="evenodd" d="M23.772 6.691V0H17.131V6.691H23.772ZM23.772 8.654V15.346H17.131V8.654H23.772ZM6.638 24V17.308H0V24H6.638ZM15.205 17.308V24H8.564V17.308H15.205ZM23.772 17.308V24H17.131V17.308H23.772ZM15.205 15.346V8.654H8.564V15.346H15.205ZM6.638 8.654V15.346H0V8.654H6.638ZM15.2 0V6.691H8.564V0H15.2ZM6.638 6.691V0H0V6.691H6.638Z" fill="#196BDE"/>
</svg>

<svg xmlns="http://www.w3.org/2000/svg" fill="none" viewBox="0 0 135.57 24"><path fill="#196BDE" fill-rule="evenodd" d="M49.7 1v22.29h-1.51V1h1.51Zm-15.127.016v9.576a7.084 7.084 0 0 1 4.688-1.807c3.146 0 6.182 2.156 6.182 7.356 0 5.374-3.413 7.4-7.063 7.4A10.89 10.89 0 0 1 33 22.069V1.016h1.573Zm39.818 7.811h.261c3.73.093 6.3 3.049 5.925 7.4l-.026.268H69.194a5.5 5.5 0 0 0 5.568 5.6c.096.004.192.006.287.006a8.7 8.7 0 0 0 3.858-.958l.275-.142.55 1.332a9.933 9.933 0 0 1-4.7 1.228c-.115 0-.232-.002-.349-.007-4.75-.154-7.183-3.91-7.03-7.921a6.666 6.666 0 0 1 6.738-6.806Zm55.033.195V4.234l-1.573.004v4.788h-2.532v1.348h2.532v7.911c0 3.663 2.03 5.232 4.578 5.232a8.507 8.507 0 0 0 3.146-.634l-.456-1.4a5.817 5.817 0 0 1-2.659.555c-2.061-.079-3.036-1.568-3.036-3.868v-7.8h4.688V9.022h-4.688Zm-24.68-.222c3.649 0 6.811 2.727 6.811 7.34 0 4.724-3.178 7.372-6.811 7.372-4.074 0-6.811-3.3-6.811-7.372 0-4.328 3.02-7.34 6.811-7.34Zm-49.8 8.922v-8.7l-1.574-.001v8.862c0 4.344 2.139 5.628 4.373 5.628a6.692 6.692 0 0 0 5.38-2.98v2.759H64.7V9.018h-1.58v9.893c-1.321 1.95-3.02 3.123-4.876 3.123-1.648 0-3.3-.919-3.3-4.312Zm64.146-8.89a8.383 8.383 0 0 1 3.932 1.031l-.6 1.252a7.01 7.01 0 0 0-3.288-.84c-2.344 0-3.4 1.157-3.4 2.362 0 1.413 1.461 2.01 3.395 2.798.171.07.345.14.522.214 3.413 1.348 4.137 2.886 4.137 4.2 0 2.235-2.076 3.646-4.829 3.646a8.792 8.792 0 0 1-4.5-1.3l.676-1.363a6.82 6.82 0 0 0 3.775 1.2c1.479 0 3.319-.618 3.3-2.124 0-1.284-1.353-2.283-3.523-3.139-2.407-.967-4.514-1.855-4.514-4.138s2.132-3.8 4.916-3.8l.001.001Zm-33.41 2.984v-10.8h-1.574v22.277h1.573v-9.8c.961-1.618 2.8-3.234 4.861-3.218 1.699.015 3.272 1.109 3.272 4.2v8.815h1.558v-9.147c0-3.187-1.669-5.343-4.5-5.343a6.286 6.286 0 0 0-5.19 3.016Zm-51.107.645a6.324 6.324 0 0 1 4.546-2.219c2.658 0 4.735 2.158 4.75 5.916 0 4.265-2.69 5.977-5.584 5.977a8.176 8.176 0 0 1-3.712-.935v-8.739Zm70.171-2.187c-3.382 0-5.222 2.7-5.222 5.866 0 3.155 1.825 5.9 5.222 5.9 3.288 0 5.238-2.759 5.238-5.9 0-3.171-1.935-5.866-5.238-5.866Zm-35.466 4.694a5.069 5.069 0 0 1 5.234-4.71 4.677 4.677 0 0 1 4.577 4.946h-9.831l.02-.236Zm5.05-4.713h.001-.001ZM23.772 6.691V0h-6.641v6.691h6.641Zm0 1.963v6.692h-6.641V8.654h6.641ZM6.638 24v-6.692H0V24h6.638Zm8.567-6.692V24H8.564v-6.692h6.641Zm8.567 0V24h-6.641v-6.692h6.641Zm-8.567-1.962V8.654H8.564v6.692h6.641ZM6.638 8.654v6.692H0V8.654h6.638ZM15.2 0v6.691H8.564V0H15.2ZM6.638 6.691V0H0v6.691h6.638Z" clip-rule="evenodd"/></svg>
